X:184
T:Kildare Fancy
R:Hornpipe
M:4/4
L:1/8
K:D
dB|:"D"AFDF "A7"AFdB|"D"(3ABA FA "D/F#"fedc|"G"BGBd "G/B"gefd|"E7"(3efe  (3dcB "A7"A2dB|
"D"AFDF "A7"AFdB|"D"(3ABA FA "D/F#"fedc|"G"BGBd "Em"gefd|[1 "A7"ec (3ABc "D"d2dB:|[2 "A7"ec (3ABc "D"d2de||
|:"D"fdcd  "G"(3Bcd AF|"D"Ddcd "D/F#"fdcd|"Em"eA (3AAA "A7"fA (3AAA|"E7"(3efe  (3dcB "A7"A2de|
"D"fdcd  "G"(3Bcd AF|"D"Ddcd "D/F#"fdcd|"Em"eAfA "A7"gAfA|[1 "Em"ec "A7"(3ABc "D"d2de:|[2 "Em"ec "A7"(3ABc  "D"d2dB|]
